svgs/thin/bed-bunk.svg

<svg xmlns="http://www.w3.org/2000/svg" viewBox="0 0 576 512"><!-- Font Awesome Pro 6.0.0-alpha2 by @fontawesome - https://fontawesome.com License - https://fontawesome.com/license (Commercial License) --><path d="M464 32H224C215.156 32 208 39.156 208 48V192H16V8C16 3.594 12.422 0 8 0S0 3.594 0 8V504C0 508.406 3.578 512 8 512S16 508.406 16 504V448H560V504C560 508.406 563.578 512 568 512S576 508.406 576 504V144C576 82.125 525.875 32 464 32ZM560 432H224V288H464C516.934 288 560 331.064 560 384V432ZM560 327.127C540.486 294.258 505.012 272 464 272H224C215.156 272 208 279.156 208 288V432H16V208H560V327.127ZM560 192H224V48H464C516.934 48 560 91.064 560 144V192ZM112 400C147.348 400 176 371.346 176 336S147.348 272 112 272C76.654 272 48 300.654 48 336S76.654 400 112 400ZM112 288C138.467 288 160 309.533 160 336S138.467 384 112 384S64 362.467 64 336S85.533 288 112 288ZM112 160C147.348 160 176 131.346 176 96S147.348 32 112 32C76.654 32 48 60.654 48 96S76.654 160 112 160ZM112 48C138.467 48 160 69.533 160 96S138.467 144 112 144S64 122.467 64 96S85.533 48 112 48Z"/></svg>

<svg xmlns="http://www.w3.org/2000/svg" viewBox="0 0 576 512"><!--! Font Awesome Pro 6.0.0-alpha3 by @fontawesome - https://fontawesome.com License - https://fontawesome.com/license (Commercial License) --><path d="M464 32H224C215.2 32 208 39.16 208 48V192h-192V8C16 3.594 12.42 0 8 0S0 3.594 0 8v496C0 508.4 3.578 512 8 512s8-3.594 8-8V448h544v56c0 4.406 3.578 8 8 8S576 508.4 576 504V144C576 82.13 525.9 32 464 32zM560 432H224V288h240c52.93 0 96 43.06 96 96V432zM560 327.1C540.5 294.3 505 272 464 272H224C215.2 272 208 279.2 208 288v144h-192v-224h544V327.1zM560 192H224V48h240c52.93 0 96 43.06 96 96V192zM112 400c35.35 0 64-28.65 64-64s-28.65-64-64-64c-35.35 0-64 28.65-64 64S76.65 400 112 400zM112 288C138.5 288 160 309.5 160 336S138.5 384 112 384S64 362.5 64 336S85.53 288 112 288zM112 160c35.35 0 64-28.65 64-64s-28.65-64-64-64c-35.35 0-64 28.65-64 64S76.65 160 112 160zM112 48C138.5 48 160 69.53 160 96S138.5 144 112 144S64 122.5 64 96S85.53 48 112 48z"/></svg>
